flaticon/interaction/server-10.svg

<svg xmlns="http://www.w3.org/2000/svg" width="32" height="32" viewBox="0 0 24 24">
    <path d="M18.230469 16.519531C18.125 16.503906 18.015625 16.496094 17.90625 16.496094 17.710938 16.496094 17.519531 16.519531 17.335938 16.558594 15.496094 16.792969 13.804688 17.976562 12.507812 19.953125L12.320312 20.238281 12.464844 20.457031C13.917969 22.679688 15.878906 23.902344 17.980469 23.902344 20.082031 23.902344 22.039062 22.679688 23.492188 20.457031L23.679688 20.175781 23.535156 19.953125C22.128906 17.808594 20.253906 16.597656 18.230469 16.519531zM19.871094 19.261719C19.871094 20.34375 18.988281 21.226562 17.90625 21.226562 16.824219 21.226562 15.941406 20.34375 15.941406 19.261719 15.941406 18.324219 16.605469 17.539062 17.484375 17.34375 17.664062 17.324219 17.839844 17.3125 18.023438 17.3125 18.03125 17.3125 18.039062 17.3125 18.046875 17.3125 19.0625 17.386719 19.871094 18.226562 19.871094 19.261719zM17.976562 23.101562C16.222656 23.101562 14.5625 22.085938 13.28125 20.238281 13.90625 19.324219 14.621094 18.609375 15.394531 18.117188 15.234375 18.464844 15.140625 18.851562 15.140625 19.261719 15.140625 20.785156 16.382812 22.023438 17.90625 22.023438 19.429688 22.023438 20.667969 20.785156 20.667969 19.261719 20.667969 18.773438 20.542969 18.320312 20.320312 17.921875 21.203125 18.402344 22.015625 19.164062 22.71875 20.175781 21.429688 22.066406 19.753906 23.101562 17.976562 23.101562zM4.199219 2.496094C3.207031 2.496094 2.398438 3.304688 2.398438 4.296875 2.398438 5.289062 3.207031 6.097656 4.199219 6.097656 5.191406 6.097656 6 5.289062 6 4.296875 6 3.304688 5.191406 2.496094 4.199219 2.496094zM4.199219 5.296875C3.648438 5.296875 3.199219 4.847656 3.199219 4.296875 3.199219 3.746094 3.648438 3.296875 4.199219 3.296875 4.75 3.296875 5.199219 3.746094 5.199219 4.296875 5.199219 4.847656 4.75 5.296875 4.199219 5.296875zM20.398438 3.699219C20.398438 3.917969 20.222656 4.097656 20 4.097656 19.777344 4.097656 19.601562 3.917969 19.601562 3.699219 19.601562 3.476562 19.777344 3.296875 20 3.296875 20.222656 3.296875 20.398438 3.476562 20.398438 3.699219zM18.800781 3.699219C18.800781 3.917969 18.621094 4.097656 18.398438 4.097656 18.179688 4.097656 18 3.917969 18 3.699219 18 3.476562 18.179688 3.296875 18.398438 3.296875 18.621094 3.296875 18.800781 3.476562 18.800781 3.699219zM21.199219 4.898438C21.199219 5.117188 21.019531 5.296875 20.800781 5.296875 20.578125 5.296875 20.398438 5.117188 20.398438 4.898438 20.398438 4.675781 20.578125 4.496094 20.800781 4.496094 21.019531 4.496094 21.199219 4.675781 21.199219 4.898438zM19.601562 4.898438C19.601562 5.117188 19.421875 5.296875 19.199219 5.296875 18.980469 5.296875 18.800781 5.117188 18.800781 4.898438 18.800781 4.675781 18.980469 4.496094 19.199219 4.496094 19.421875 4.496094 19.601562 4.675781 19.601562 4.898438zM17.199219 3.699219C17.199219 3.917969 17.019531 4.097656 16.800781 4.097656 16.578125 4.097656 16.398438 3.917969 16.398438 3.699219 16.398438 3.476562 16.578125 3.296875 16.800781 3.296875 17.019531 3.296875 17.199219 3.476562 17.199219 3.699219zM18 4.898438C18 5.117188 17.820312 5.296875 17.601562 5.296875 17.378906 5.296875 17.199219 5.117188 17.199219 4.898438 17.199219 4.675781 17.378906 4.496094 17.601562 4.496094 17.820312 4.496094 18 4.675781 18 4.898438zM15.601562 3.699219C15.601562 3.917969 15.421875 4.097656 15.199219 4.097656 14.980469 4.097656 14.800781 3.917969 14.800781 3.699219 14.800781 3.476562 14.980469 3.296875 15.199219 3.296875 15.421875 3.296875 15.601562 3.476562 15.601562 3.699219zM16.398438 4.898438C16.398438 5.117188 16.222656 5.296875 16 5.296875 15.777344 5.296875 15.601562 5.117188 15.601562 4.898438 15.601562 4.675781 15.777344 4.496094 16 4.496094 16.222656 4.496094 16.398438 4.675781 16.398438 4.898438zM14 3.699219C14 3.917969 13.820312 4.097656 13.601562 4.097656 13.378906 4.097656 13.199219 3.917969 13.199219 3.699219 13.199219 3.476562 13.378906 3.296875 13.601562 3.296875 13.820312 3.296875 14 3.476562 14 3.699219zM14.800781 4.898438C14.800781 5.117188 14.621094 5.296875 14.398438 5.296875 14.179688 5.296875 14 5.117188 14 4.898438 14 4.675781 14.179688 4.496094 14.398438 4.496094 14.621094 4.496094 14.800781 4.675781 14.800781 4.898438zM14.800781 4.898438"/>
    <path d="M 24 6.65625 L 24 1.941406 C 24 0.925781 23.171875 0.0976562 22.15625 0.0976562 L 1.84375 0.0976562 C 0.828125 0.0976562 0 0.925781 0 1.941406 L 0 6.65625 C 0 7.242188 0.28125 7.761719 0.710938 8.097656 C 0.28125 8.4375 0 8.953125 0 9.542969 L 0 14.253906 C 0 14.84375 0.28125 15.359375 0.710938 15.699219 C 0.28125 16.035156 0 16.554688 0 17.140625 L 0 21.855469 C 0 22.871094 0.828125 23.699219 1.84375 23.699219 L 11.199219 23.699219 L 11.199219 22.898438 L 1.84375 22.898438 C 1.269531 22.898438 0.800781 22.429688 0.800781 21.855469 L 0.800781 17.140625 C 0.800781 16.566406 1.269531 16.097656 1.84375 16.097656 L 15.199219 16.097656 L 15.199219 15.296875 L 1.84375 15.296875 C 1.269531 15.296875 0.800781 14.828125 0.800781 14.253906 L 0.800781 9.542969 C 0.800781 8.964844 1.269531 8.496094 1.84375 8.496094 L 22.15625 8.496094 C 22.730469 8.496094 23.199219 8.964844 23.199219 9.542969 L 23.199219 15.296875 L 24 15.296875 L 24 9.542969 C 24 8.953125 23.71875 8.4375 23.289062 8.097656 C 23.71875 7.757812 24 7.242188 24 6.65625 Z M 1.84375 7.699219 C 1.269531 7.699219 0.800781 7.230469 0.800781 6.65625 L 0.800781 1.941406 C 0.800781 1.367188 1.269531 0.898438 1.84375 0.898438 L 22.15625 0.898438 C 22.730469 0.898438 23.199219 1.367188 23.199219 1.941406 L 23.199219 6.65625 C 23.199219 7.230469 22.730469 7.699219 22.15625 7.699219 Z M 1.84375 7.699219"/>
    <path d="M2.398438 11.898438C2.398438 12.890625 3.207031 13.699219 4.199219 13.699219 5.191406 13.699219 6 12.890625 6 11.898438 6 10.90625 5.191406 10.097656 4.199219 10.097656 3.207031 10.097656 2.398438 10.90625 2.398438 11.898438zM5.199219 11.898438C5.199219 12.449219 4.75 12.898438 4.199219 12.898438 3.648438 12.898438 3.199219 12.449219 3.199219 11.898438 3.199219 11.347656 3.648438 10.898438 4.199219 10.898438 4.75 10.898438 5.199219 11.347656 5.199219 11.898438zM20.398438 11.296875C20.398438 11.519531 20.222656 11.699219 20 11.699219 19.777344 11.699219 19.601562 11.519531 19.601562 11.296875 19.601562 11.078125 19.777344 10.898438 20 10.898438 20.222656 10.898438 20.398438 11.078125 20.398438 11.296875zM18.800781 11.296875C18.800781 11.519531 18.621094 11.699219 18.398438 11.699219 18.179688 11.699219 18 11.519531 18 11.296875 18 11.078125 18.179688 10.898438 18.398438 10.898438 18.621094 10.898438 18.800781 11.078125 18.800781 11.296875zM21.199219 12.496094C21.199219 12.71875 21.019531 12.898438 20.800781 12.898438 20.578125 12.898438 20.398438 12.71875 20.398438 12.496094 20.398438 12.277344 20.578125 12.097656 20.800781 12.097656 21.019531 12.097656 21.199219 12.277344 21.199219 12.496094zM19.601562 12.496094C19.601562 12.71875 19.421875 12.898438 19.199219 12.898438 18.980469 12.898438 18.800781 12.71875 18.800781 12.496094 18.800781 12.277344 18.980469 12.097656 19.199219 12.097656 19.421875 12.097656 19.601562 12.277344 19.601562 12.496094zM17.199219 11.296875C17.199219 11.519531 17.019531 11.699219 16.800781 11.699219 16.578125 11.699219 16.398438 11.519531 16.398438 11.296875 16.398438 11.078125 16.578125 10.898438 16.800781 10.898438 17.019531 10.898438 17.199219 11.078125 17.199219 11.296875zM18 12.496094C18 12.71875 17.820312 12.898438 17.601562 12.898438 17.378906 12.898438 17.199219 12.71875 17.199219 12.496094 17.199219 12.277344 17.378906 12.097656 17.601562 12.097656 17.820312 12.097656 18 12.277344 18 12.496094zM15.601562 11.296875C15.601562 11.519531 15.421875 11.699219 15.199219 11.699219 14.980469 11.699219 14.800781 11.519531 14.800781 11.296875 14.800781 11.078125 14.980469 10.898438 15.199219 10.898438 15.421875 10.898438 15.601562 11.078125 15.601562 11.296875zM16.398438 12.496094C16.398438 12.71875 16.222656 12.898438 16 12.898438 15.777344 12.898438 15.601562 12.71875 15.601562 12.496094 15.601562 12.277344 15.777344 12.097656 16 12.097656 16.222656 12.097656 16.398438 12.277344 16.398438 12.496094zM14 11.296875C14 11.519531 13.820312 11.699219 13.601562 11.699219 13.378906 11.699219 13.199219 11.519531 13.199219 11.296875 13.199219 11.078125 13.378906 10.898438 13.601562 10.898438 13.820312 10.898438 14 11.078125 14 11.296875zM14.800781 12.496094C14.800781 12.71875 14.621094 12.898438 14.398438 12.898438 14.179688 12.898438 14 12.71875 14 12.496094 14 12.277344 14.179688 12.097656 14.398438 12.097656 14.621094 12.097656 14.800781 12.277344 14.800781 12.496094zM2.398438 19.496094C2.398438 20.488281 3.207031 21.296875 4.199219 21.296875 5.191406 21.296875 6 20.488281 6 19.496094 6 18.503906 5.191406 17.699219 4.199219 17.699219 3.207031 17.699219 2.398438 18.503906 2.398438 19.496094zM5.199219 19.496094C5.199219 20.050781 4.75 20.496094 4.199219 20.496094 3.648438 20.496094 3.199219 20.050781 3.199219 19.496094 3.199219 18.945312 3.648438 18.496094 4.199219 18.496094 4.75 18.496094 5.199219 18.945312 5.199219 19.496094zM5.199219 19.496094"/>
</svg>

<svg xmlns="http://www.w3.org/2000/svg" width="32" height="32" viewBox="0 0 24 24">
    <path d="M18.23 16.52a2.223 2.223 0 0 0-.324-.024c-.195 0-.386.024-.57.063-1.84.234-3.531 1.418-4.828 3.394l-.188.285.145.219c1.453 2.223 3.414 3.445 5.515 3.445 2.102 0 4.06-1.222 5.512-3.445l.188-.281-.145-.223c-1.406-2.144-3.281-3.355-5.305-3.433zm1.641 2.742a1.969 1.969 0 0 1-1.965 1.965 1.969 1.969 0 0 1-1.965-1.965c0-.938.664-1.723 1.543-1.918.18-.02.356-.032.54-.032h.023a1.961 1.961 0 0 1 1.824 1.95zm-1.894 3.84c-1.754 0-3.415-1.016-4.696-2.864.625-.914 1.34-1.629 2.114-2.12-.16.347-.254.734-.254 1.144a2.764 2.764 0 1 0 5.18-1.34c.882.48 1.695 1.242 2.398 2.254-1.29 1.89-2.965 2.926-4.742 2.926zm0 0M4.2 2.496c-.993 0-1.802.809-1.802 1.8 0 .993.809 1.802 1.801 1.802C5.191 6.098 6 5.289 6 4.297c0-.992-.809-1.8-1.8-1.8zm0 2.8c-.552 0-1-.448-1-1 0-.55.448-1 1-1 .55 0 1 .45 1 1 0 .552-.45 1-1 1zm0 0M20.398 3.7a.398.398 0 1 1-.796 0 .398.398 0 1 1 .796 0zm0 0M18.8 3.7A.401.401 0 1 1 18 3.693a.401.401 0 0 1 .802.005zm0 0M21.2 4.898a.4.4 0 1 1-.801-.003.4.4 0 0 1 .8.003zm0 0M19.602 4.898a.401.401 0 1 1-.802-.005.401.401 0 0 1 .802.005zm0 0M17.2 3.7a.4.4 0 1 1-.801-.004.4.4 0 0 1 .8.003zm0 0M18 4.898a.4.4 0 1 1-.8-.003.4.4 0 0 1 .8.003zm0 0M15.602 3.7a.401.401 0 1 1-.802-.006.401.401 0 0 1 .802.005zm0 0M16.398 4.898a.398.398 0 1 1-.796 0 .398.398 0 1 1 .796 0zm0 0M14 3.7a.4.4 0 1 1-.8-.004.4.4 0 0 1 .8.003zm0 0M14.8 4.898A.401.401 0 1 1 14 4.893a.401.401 0 0 1 .802.005zm0 0"/>
    <path d="M24 6.656V1.941A1.847 1.847 0 0 0 22.156.098H1.844A1.847 1.847 0 0 0 0 1.94v4.715c0 .586.281 1.106.71 1.442-.429.34-.71.855-.71 1.445v4.71c0 .59.281 1.106.71 1.446-.429.336-.71.856-.71 1.442v4.714C0 22.871.828 23.7 1.844 23.7h9.355v-.8H1.844A1.045 1.045 0 0 1 .8 21.854v-4.714c0-.575.469-1.043 1.043-1.043h13.355v-.801H1.844A1.045 1.045 0 0 1 .8 14.254V9.543c0-.578.469-1.047 1.043-1.047h20.312c.574 0 1.043.469 1.043 1.047v5.754H24V9.543c0-.59-.281-1.105-.71-1.445.429-.34.71-.856.71-1.442zM1.844 7.7A1.045 1.045 0 0 1 .8 6.656V1.941C.8 1.367 1.27.898 1.844.898h20.312c.574 0 1.043.47 1.043 1.043v4.715c0 .574-.469 1.043-1.043 1.043zm0 0"/>
    <path d="M2.398 11.898c0 .993.809 1.801 1.801 1.801.992 0 1.801-.808 1.801-1.8 0-.993-.809-1.801-1.8-1.801-.993 0-1.802.808-1.802 1.8zm2.801 0c0 .551-.449 1-1 1-.55 0-1-.449-1-1 0-.55.45-1 1-1 .551 0 1 .45 1 1zm0 0M20.398 11.297a.398.398 0 1 1-.796 0 .398.398 0 1 1 .796 0zm0 0M18.8 11.297a.401.401 0 1 1 0 0zm0 0M21.2 12.496a.401.401 0 1 1-.803.003.401.401 0 0 1 .802-.003zm0 0M19.602 12.496a.401.401 0 1 1 0 0zm0 0M17.2 11.297a.401.401 0 1 1-.803.003.401.401 0 0 1 .802-.003zm0 0M18 12.496a.401.401 0 1 1-.802.003.401.401 0 0 1 .802-.003zm0 0M15.602 11.297a.401.401 0 1 1 0 0zm0 0M16.398 12.496a.398.398 0 1 1-.796 0 .398.398 0 1 1 .796 0zm0 0M14 11.297a.401.401 0 1 1-.802.003.401.401 0 0 1 .802-.003zm0 0M14.8 12.496a.401.401 0 1 1 0 0zm0 0M2.398 19.496c0 .992.809 1.8 1.801 1.8.992 0 1.801-.808 1.801-1.8a1.8 1.8 0 0 0-3.602 0zm2.801 0a1 1 0 1 1-1.999.001 1 1 0 0 1 2 0zm0 0"/>
</svg>
